bicons/16x16/categories/user-research-assistant.svg

<?xml version="1.0" encoding="UTF-8" standalone="no"?>
<!-- Created with Inkscape (http://www.inkscape.org/) -->

<svg
   xmlns:dc="http://purl.org/dc/elements/1.1/"
   xmlns:cc="http://creativecommons.org/ns#"
   xmlns:rdf="http://www.w3.org/1999/02/22-rdf-syntax-ns#"
   xmlns:svg="http://www.w3.org/2000/svg"
   xmlns="http://www.w3.org/2000/svg"
   xmlns:xlink="http://www.w3.org/1999/xlink"
   xmlns:sodipodi="http://sodipodi.sourceforge.net/DTD/sodipodi-0.dtd"
   xmlns:inkscape="http://www.inkscape.org/namespaces/inkscape"
   width="210mm"
   height="297mm"
   viewBox="0 0 744.09448819 1052.3622047"
   id="svg2"
   version="1.1"
   inkscape:version="0.91 r13725"
   inkscape:export-xdpi="3.5975049"
   inkscape:export-ydpi="3.5975049"
   sodipodi:docname="user-research-assistant.svg"
   inkscape:export-filename="C:\Users\johannes\Documents\Arbeit\RRZE\github3\bicons\16x16\categories\user-research-assistant.png">
  <defs
     id="defs4">
    <linearGradient
       id="linearGradient2224">
      <stop
         id="stop2226"
         offset="0"
         style="stop-color:#7c7c7c;stop-opacity:1;" />
      <stop
         id="stop2228"
         offset="1"
         style="stop-color:#b8b8b8;stop-opacity:1;" />
    </linearGradient>
    <linearGradient
       id="linearGradient15218">
      <stop
         id="stop15220"
         offset="0"
         style="stop-color:#eeeeef;stop-opacity:1;" />
      <stop
         id="stop2736"
         offset="0.59928656"
         style="stop-color:#d3d7cf;stop-opacity:1;" />
      <stop
         id="stop2738"
         offset="0.82758623"
         style="stop-color:#ffffff;stop-opacity:1;" />
      <stop
         id="stop15222"
         offset="1"
         style="stop-color:#d3d7cf;stop-opacity:1;" />
    </linearGradient>
    <pattern
       y="0"
       x="0"
       height="6"
       width="6"
       patternUnits="userSpaceOnUse"
       id="EMFhbasepattern" />
    <pattern
       y="0"
       x="0"
       height="6"
       width="6"
       patternUnits="userSpaceOnUse"
       id="EMFhbasepattern-5" />
    <pattern
       y="0"
       x="0"
       height="6"
       width="6"
       patternUnits="userSpaceOnUse"
       id="EMFhbasepattern-8" />
    <linearGradient
       inkscape:collect="always"
       xlink:href="#linearGradient4254"
       id="linearGradient4268"
       x1="358.43118"
       y1="465.73074"
       x2="429.96555"
       y2="644.62878"
       gradientUnits="userSpaceOnUse"
       gradientTransform="matrix(1.1386133,0,0,1.1369311,-56.016186,-53.032424)" />
    <linearGradient
       inkscape:collect="always"
       id="linearGradient4254">
      <stop
         style="stop-color:#7a8597;stop-opacity:1"
         offset="0"
         id="stop4256" />
      <stop
         style="stop-color:#4e505d;stop-opacity:1"
         offset="1"
         id="stop4258" />
    </linearGradient>
    <linearGradient
       inkscape:collect="always"
       xlink:href="#linearGradient4254"
       id="linearGradient4260"
       x1="380.01031"
       y1="330.40619"
       x2="414.6156"
       y2="457.18103"
       gradientUnits="userSpaceOnUse"
       gradientTransform="matrix(1.1539288,0,0,1.152224,-62.613296,-58.542154)" />
  </defs>
  <sodipodi:namedview
     id="base"
     pagecolor="#ffffff"
     bordercolor="#666666"
     borderopacity="1.0"
     inkscape:pageopacity="0.0"
     inkscape:pageshadow="2"
     inkscape:zoom="0.95004569"
     inkscape:cx="374.60333"
     inkscape:cy="523.40347"
     inkscape:document-units="px"
     inkscape:current-layer="layer1"
     showgrid="false"
     showguides="true"
     inkscape:guide-bbox="true"
     inkscape:window-width="1366"
     inkscape:window-height="721"
     inkscape:window-x="-4"
     inkscape:window-y="-4"
     inkscape:window-maximized="1"
     inkscape:snap-bbox="true"
     inkscape:bbox-nodes="true">
    <sodipodi:guide
       position="315.53572,730.17859"
       orientation="0,1"
       id="guide3338" />
    <sodipodi:guide
       position="351.25,330.17858"
       orientation="0,1"
       id="guide3340" />
    <sodipodi:guide
       position="189.10714,408.8393"
       orientation="1,0"
       id="guide3344" />
    <sodipodi:guide
       position="589.04521,468.07945"
       orientation="1,0"
       id="guide3346" />
    <inkscape:grid
       type="xygrid"
       id="grid3440" />
    <sodipodi:guide
       position="0,0"
       orientation="0,1"
       id="guide3405" />
    <sodipodi:guide
       position="214.125,684.50002"
       orientation="1,0"
       id="guide3407" />
    <sodipodi:guide
       position="0,0"
       orientation="0,1"
       id="guide3409" />
    <sodipodi:guide
       position="589.04521,378.30213"
       orientation="1,0"
       id="guide3411" />
    <sodipodi:guide
       position="564.00001,683.37502"
       orientation="1,0"
       id="guide3413" />
    <sodipodi:guide
       position="0,0"
       orientation="0,1"
       id="guide4168" />
  </sodipodi:namedview>
  <metadata
     id="metadata7">
    <rdf:RDF>
      <cc:Work
         rdf:about="">
        <dc:format>image/svg+xml</dc:format>
        <dc:type
           rdf:resource="http://purl.org/dc/dcmitype/StillImage" />
        <dc:title>user research assistant</dc:title>
        <dc:date>June 2015</dc:date>
        <dc:creator>
          <cc:Agent>
            <dc:title>Johannes Hechler</dc:title>
          </cc:Agent>
        </dc:creator>
        <dc:rights>
          <cc:Agent>
            <dc:title>Johannes Hechler</dc:title>
          </cc:Agent>
        </dc:rights>
        <dc:publisher>
          <cc:Agent>
            <dc:title>RRZE</dc:title>
          </cc:Agent>
        </dc:publisher>
        <dc:contributor>
          <cc:Agent>
            <dc:title>Ute Weber, Hendrik Eggers</dc:title>
          </cc:Agent>
        </dc:contributor>
      </cc:Work>
    </rdf:RDF>
  </metadata>
  <g
     inkscape:label="Ebene 1"
     inkscape:groupmode="layer"
     id="layer1">
    <g
       id="g4237">
      <flowRoot
         style="font-style:normal;font-weight:normal;font-size:40px;line-height:125%;font-family:sans-serif;letter-spacing:0px;word-spacing:0px;fill:#252525;fill-opacity:1;stroke:none;stroke-width:1px;stroke-linecap:butt;stroke-linejoin:miter;stroke-opacity:1"
         id="flowRoot4169-6"
         xml:space="preserve"
         transform="matrix(1,0,0,0.99852263,-0.099636,0.389736)"><flowRegion
           id="flowRegion4171-5"><rect
             y="427.07962"
             x="89.541069"
             height="88.78862"
             width="56.433445"
             id="rect4173-3" /></flowRegion><flowPara
           id="flowPara4175-7" /></flowRoot>      <rect
         inkscape:export-ydpi="4.9499998"
         inkscape:export-xdpi="4.9499998"
         y="322.18362"
         x="189.04521"
         height="399.40906"
         width="400"
         id="rect3336-5"
         style="fill:none;fill-rule:evenodd;stroke:none;stroke-width:1px;stroke-linecap:butt;stroke-linejoin:miter;stroke-opacity:1" />
      <path
         sodipodi:nodetypes="cscsccccccccccccsccscccccccccsccccccc"
         inkscape:connector-curvature="0"
         id="path2176"
         d="m 441.13672,487.02539 c -12.47076,6.99147 -34.84567,7.00781 -50.13281,7.00781 -7.26328,10e-6 -16.02457,-0.0637 -24.60547,-0.84765 14.03329,18.76925 22.36914,42.01037 22.36914,67.08984 l 0,0.0254 c -0.031,31.25031 -12.03622,61.23914 -33.0918,82.35938 2.70724,-0.97411 5.5623,-1.47363 8.43945,-1.47657 0.23167,6e-4 0.45805,0.0214 0.68946,0.0234 1.10335,-4.51529 3.44354,-8.63362 6.75781,-11.89258 l 92.0332,-90.04101 c 3.98536,-3.89976 9.15994,-6.3554 14.70118,-6.97656 0.30276,-0.0339 0.58124,-0.0153 0.88281,-0.0469 0.16563,-2.10319 0.59679,-4.17696 1.2832,-6.17188 -10.60266,-13.25303 -23.56688,-26.32411 -39.32617,-39.05273 z m 50.70703,94.56055 -55.16992,53.97461 c 3.13656,2.17777 6.13715,4.5653 8.8457,7.37695 2.19329,2.27677 4.07971,4.72209 5.82813,7.23828 l 54.3789,-53.20312 c -0.65209,-6.44305 -2.02722,-10.64386 -2.98047,-12.05274 -1.3354,-1.9737 -1.26553,-3.19202 -10.90234,-3.33398 z m 31.14258,68.44726 -66.45703,65.01953 c -3.19563,3.11783 -7.16782,5.32311 -11.50391,6.38672 0.002,0.13724 0.0156,0.27086 0.0176,0.40821 -0.002,0.112 -0.006,0.22398 -0.01,0.33593 l 41.99805,0 0,-0.01 c 14.85491,-0.20938 27.36663,-8.28083 31.57031,-19.34571 2.81283,-15.64323 3.84473,-32.06006 4.31641,-48.97851 0.0354,-1.26824 0.0556,-2.54159 0.0684,-3.81641 z m -180.76758,4.01758 c -6.84385,4.83824 -14.34645,8.87079 -22.45117,11.92383 l 0,56.20898 19.27734,0 0,-56 c 0.01,-4.24823 1.10231,-8.42385 3.17383,-12.13281 z"
         style="fill:url(#linearGradient4268);fill-opacity:1;stroke:none;stroke-width:41.15159225;stroke-linecap:round;stroke-linejoin:round;stroke-opacity:1" />
      <ellipse
         ry="75.232376"
         rx="75.752335"
         cx="390.43085"
         cy="398.00693"
         id="circle2187-6"
         style="fill:url(#linearGradient4260);fill-opacity:1;stroke:none;stroke-width:14;stroke-miterlimit:4;stroke-dasharray:none;stroke-opacity:1" />
      <flowRoot
         transform="translate(-0.37706,-0.086465)"
         xml:space="preserve"
         id="flowRoot4169"
         style="font-style:normal;font-weight:normal;font-size:40px;line-height:125%;font-family:sans-serif;letter-spacing:0px;word-spacing:0px;fill:#252525;fill-opacity:1;stroke:none;stroke-width:1px;stroke-linecap:butt;stroke-linejoin:miter;stroke-opacity:1"><flowRegion
           id="flowRegion4171"><rect
             id="rect4173"
             width="56.433445"
             height="88.78862"
             x="89.541069"
             y="427.07962" /></flowRegion><flowPara
           id="flowPara4175" /></flowRoot>      <rect
         style="fill:none;fill-rule:evenodd;stroke:none;stroke-width:1px;stroke-linecap:butt;stroke-linejoin:miter;stroke-opacity:1"
         id="rect3336"
         width="400"
         height="400"
         x="188.76779"
         y="322.18362"
         inkscape:export-xdpi="4.9499998"
         inkscape:export-ydpi="4.9499998" />
      <path
         id="path4541"
         d="m 276.2678,472.77503 c -48.32492,0 -87.5,39.17508 -87.5,87.5 0.0538,43.45505 25.99061,80.2863 69,86.49414 l 0,76.00586 37,0 0,-75.98438 c 43.01745,-6.20901 68.95682,-43.05241 69,-86.51562 0,-48.32492 -39.17508,-87.5 -87.5,-87.5 z m 0,29 c 34.5178,0 58.5,23.9822 58.5,58.5 0,34.5178 -23.9822,58.5 -58.5,58.5 -34.5178,0 -58.5,-23.9822 -58.5,-58.5 0,-34.5178 23.9822,-58.5 58.5,-58.5 z"
         style="color:#000000;clip-rule:nonzero;display:inline;overflow:visible;visibility:visible;opacity:1;isolation:auto;mix-blend-mode:normal;color-interpolation:sRGB;color-interpolation-filters:linearRGB;solid-color:#000000;solid-opacity:1;fill:#99b000;fill-opacity:1;fill-rule:nonzero;stroke:none;stroke-width:50;stroke-linecap:round;stroke-linejoin:round;stroke-miterlimit:4;stroke-dasharray:none;stroke-dashoffset:0;stroke-opacity:1;color-rendering:auto;image-rendering:auto;shape-rendering:auto;text-rendering:auto;enable-background:accumulate"
         inkscape:connector-curvature="0" />
      <path
         style="fill:#97ae00;fill-opacity:1;fill-rule:evenodd;stroke:none;stroke-width:1px;stroke-linecap:butt;stroke-linejoin:miter;stroke-opacity:1"
         d="m 539.04521,497.18363 -34.95898,36.95117 c 39.12112,1.20291 49.95336,16.62534 50,50 l 34.95898,-36.95117 c -0.42603,-26.21463 -21.81993,-49.25806 -50,-50 z m -47.45117,59.38086 c -3.25802,-0.0311 -6.75751,0.15748 -10.51563,0.57812 l -92.0332,90.04102 c 35.85935,0.80831 50.0617,17.45448 50,50 l 92.0332,-90.04102 c 0.81592,-29.48359 -7.99014,-50.27788 -39.48437,-50.57812 z m -127.54883,109.61914 0,56 56,0 c -0.5226,-38.9207 -17.63251,-55.8917 -56,-56 z"
         id="path4230"
         inkscape:connector-curvature="0" />
    </g>
  </g>
</svg>

<?xml version="1.0" encoding="UTF-8" standalone="no"?>
<!-- Created with Inkscape (http://www.inkscape.org/) -->

<svg
   xmlns:dc="http://purl.org/dc/elements/1.1/"
   xmlns:cc="http://creativecommons.org/ns#"
   xmlns:rdf="http://www.w3.org/1999/02/22-rdf-syntax-ns#"
   xmlns:svg="http://www.w3.org/2000/svg"
   xmlns="http://www.w3.org/2000/svg"
   xmlns:xlink="http://www.w3.org/1999/xlink"
   xmlns:sodipodi="http://sodipodi.sourceforge.net/DTD/sodipodi-0.dtd"
   xmlns:inkscape="http://www.inkscape.org/namespaces/inkscape"
   width="210mm"
   height="297mm"
   viewBox="0 0 744.09448819 1052.3622047"
   id="svg2"
   version="1.1"
   inkscape:version="0.91 r13725"
   inkscape:export-xdpi="3.5975049"
   inkscape:export-ydpi="3.5975049"
   sodipodi:docname="user-research-assistant.svg"
   inkscape:export-filename="C:\Users\johannes\Documents\Arbeit\RRZE\github3\bicons\16x16\categories\user-research-assistant.png">
  <defs
     id="defs4">
    <linearGradient
       id="linearGradient2224">
      <stop
         id="stop2226"
         offset="0"
         style="stop-color:#7c7c7c;stop-opacity:1;" />
      <stop
         id="stop2228"
         offset="1"
         style="stop-color:#b8b8b8;stop-opacity:1;" />
    </linearGradient>
    <linearGradient
       id="linearGradient15218">
      <stop
         id="stop15220"
         offset="0"
         style="stop-color:#eeeeef;stop-opacity:1;" />
      <stop
         id="stop2736"
         offset="0.59928656"
         style="stop-color:#d3d7cf;stop-opacity:1;" />
      <stop
         id="stop2738"
         offset="0.82758623"
         style="stop-color:#ffffff;stop-opacity:1;" />
      <stop
         id="stop15222"
         offset="1"
         style="stop-color:#d3d7cf;stop-opacity:1;" />
    </linearGradient>
    <pattern
       y="0"
       x="0"
       height="6"
       width="6"
       patternUnits="userSpaceOnUse"
       id="EMFhbasepattern" />
    <pattern
       y="0"
       x="0"
       height="6"
       width="6"
       patternUnits="userSpaceOnUse"
       id="EMFhbasepattern-5" />
    <pattern
       y="0"
       x="0"
       height="6"
       width="6"
       patternUnits="userSpaceOnUse"
       id="EMFhbasepattern-8" />
    <linearGradient
       inkscape:collect="always"
       xlink:href="#linearGradient4254"
       id="linearGradient4268"
       x1="358.43118"
       y1="465.73074"
       x2="429.96555"
       y2="644.62878"
       gradientUnits="userSpaceOnUse"
       gradientTransform="matrix(1.1386133,0,0,1.1369311,-56.016186,-53.032424)" />
    <linearGradient
       inkscape:collect="always"
       id="linearGradient4254">
      <stop
         style="stop-color:#7a8597;stop-opacity:1"
         offset="0"
         id="stop4256" />
      <stop
         style="stop-color:#4e505d;stop-opacity:1"
         offset="1"
         id="stop4258" />
    </linearGradient>
    <linearGradient
       inkscape:collect="always"
       xlink:href="#linearGradient4254"
       id="linearGradient4260"
       x1="380.01031"
       y1="330.40619"
       x2="414.6156"
       y2="457.18103"
       gradientUnits="userSpaceOnUse"
       gradientTransform="matrix(1.1539288,0,0,1.152224,-62.613296,-58.542154)" />
  </defs>
  <sodipodi:namedview
     id="base"
     pagecolor="#ffffff"
     bordercolor="#666666"
     borderopacity="1.0"
     inkscape:pageopacity="0.0"
     inkscape:pageshadow="2"
     inkscape:zoom="0.67178375"
     inkscape:cx="573.3405"
     inkscape:cy="460.46739"
     inkscape:document-units="px"
     inkscape:current-layer="layer1"
     showgrid="false"
     showguides="true"
     inkscape:guide-bbox="true"
     inkscape:window-width="1600"
     inkscape:window-height="837"
     inkscape:window-x="-4"
     inkscape:window-y="-4"
     inkscape:window-maximized="1"
     inkscape:snap-bbox="true"
     inkscape:bbox-nodes="true"
     inkscape:object-paths="true"
     inkscape:snap-intersection-paths="true"
     inkscape:object-nodes="true"
     inkscape:snap-smooth-nodes="true">
    <sodipodi:guide
       position="315.53572,730.17859"
       orientation="0,1"
       id="guide3338" />
    <sodipodi:guide
       position="351.25,330.17858"
       orientation="0,1"
       id="guide3340" />
    <sodipodi:guide
       position="189.10714,408.8393"
       orientation="1,0"
       id="guide3344" />
    <sodipodi:guide
       position="589.04521,468.07945"
       orientation="1,0"
       id="guide3346" />
    <inkscape:grid
       type="xygrid"
       id="grid3440" />
    <sodipodi:guide
       position="0,0"
       orientation="0,1"
       id="guide3405" />
    <sodipodi:guide
       position="214.125,684.50002"
       orientation="1,0"
       id="guide3407" />
    <sodipodi:guide
       position="0,0"
       orientation="0,1"
       id="guide3409" />
    <sodipodi:guide
       position="589.04521,378.30213"
       orientation="1,0"
       id="guide3411" />
    <sodipodi:guide
       position="564.00001,683.37502"
       orientation="1,0"
       id="guide3413" />
    <sodipodi:guide
       position="0,0"
       orientation="0,1"
       id="guide4168" />
  </sodipodi:namedview>
  <metadata
     id="metadata7">
    <rdf:RDF>
      <cc:Work
         rdf:about="">
        <dc:format>image/svg+xml</dc:format>
        <dc:type
           rdf:resource="http://purl.org/dc/dcmitype/StillImage" />
        <dc:title>user research assistant</dc:title>
        <dc:date>June 2015</dc:date>
        <dc:creator>
          <cc:Agent>
            <dc:title>Johannes Hechler</dc:title>
          </cc:Agent>
        </dc:creator>
        <dc:rights>
          <cc:Agent>
            <dc:title>Johannes Hechler</dc:title>
          </cc:Agent>
        </dc:rights>
        <dc:publisher>
          <cc:Agent>
            <dc:title>RRZE</dc:title>
          </cc:Agent>
        </dc:publisher>
        <dc:contributor>
          <cc:Agent>
            <dc:title>Ute Weber, Hendrik Eggers</dc:title>
          </cc:Agent>
        </dc:contributor>
      </cc:Work>
    </rdf:RDF>
  </metadata>
  <g
     inkscape:label="Ebene 1"
     inkscape:groupmode="layer"
     id="layer1">
    <flowRoot
       transform="matrix(1,0,0,0.99852263,-0.099636,0.389736)"
       xml:space="preserve"
       id="flowRoot4169-6"
       style="font-style:normal;font-weight:normal;font-size:40px;line-height:125%;font-family:sans-serif;letter-spacing:0px;word-spacing:0px;fill:#252525;fill-opacity:1;stroke:none;stroke-width:1px;stroke-linecap:butt;stroke-linejoin:miter;stroke-opacity:1"><flowRegion
         id="flowRegion4171-5"><rect
           id="rect4173-3"
           width="56.433445"
           height="88.78862"
           x="89.541069"
           y="427.07962" /></flowRegion><flowPara
         id="flowPara4175-7" /></flowRoot>    <rect
       style="fill:none;fill-rule:evenodd;stroke:none;stroke-width:1px;stroke-linecap:butt;stroke-linejoin:miter;stroke-opacity:1"
       id="rect3336-5"
       width="400"
       height="399.40906"
       x="189.04521"
       y="322.18362"
       inkscape:export-xdpi="4.9499998"
       inkscape:export-ydpi="4.9499998" />
    <path
       style="fill:url(#linearGradient4268);fill-opacity:1;stroke:none;stroke-width:41.15159225;stroke-linecap:round;stroke-linejoin:round;stroke-opacity:1"
       d="M 441.13672 487.02539 C 428.66596 494.01686 406.29105 494.0332 391.00391 494.0332 C 383.74063 494.03321 374.97934 493.9695 366.39844 493.18555 C 380.43173 511.9548 388.76758 535.19592 388.76758 560.27539 L 388.76758 560.30078 C 388.74695 581.10004 383.41576 601.33661 373.64844 618.77539 L 382.33398 618.77539 L 463.5957 539.27344 C 467.58106 535.37368 472.75563 532.91804 478.29688 532.29688 C 478.59963 532.26297 478.87812 532.2816 479.17969 532.25 C 479.34532 530.14681 479.77648 528.07304 480.46289 526.07812 C 469.86023 512.8251 456.89601 499.75401 441.13672 487.02539 z M 491.84375 581.58594 L 453.83008 618.77539 L 483.44141 618.77539 L 505.72656 596.97266 C 505.07447 590.52961 503.69934 586.3288 502.74609 584.91992 C 501.41069 582.94622 501.48056 581.7279 491.84375 581.58594 z M 319.76758 721.5918 L 319.76758 722.18359 L 339.04492 722.18359 L 339.04492 721.5918 L 319.76758 721.5918 z M 445.03125 721.5918 C 445.03591 721.67678 445.04172 721.76156 445.04297 721.84766 C 445.04097 721.95966 445.0372 722.07164 445.0332 722.18359 L 487.03125 722.18359 L 487.03125 722.17383 C 489.16851 722.1437 491.249 721.93292 493.27148 721.5918 L 445.03125 721.5918 z "
       id="path2176" />
    <ellipse
       style="fill:url(#linearGradient4260);fill-opacity:1;stroke:none;stroke-width:14;stroke-miterlimit:4;stroke-dasharray:none;stroke-opacity:1"
       id="circle2187-6"
       cy="398.00693"
       cx="390.43085"
       rx="75.752335"
       ry="75.232376" />
    <flowRoot
       style="font-style:normal;font-weight:normal;font-size:40px;line-height:125%;font-family:sans-serif;letter-spacing:0px;word-spacing:0px;fill:#252525;fill-opacity:1;stroke:none;stroke-width:1px;stroke-linecap:butt;stroke-linejoin:miter;stroke-opacity:1"
       id="flowRoot4169"
       xml:space="preserve"
       transform="translate(-0.37706,-0.086465)"><flowRegion
         id="flowRegion4171"><rect
           y="427.07962"
           x="89.541069"
           height="88.78862"
           width="56.433445"
           id="rect4173" /></flowRegion><flowPara
         id="flowPara4175" /></flowRoot>    <rect
       inkscape:export-ydpi="4.9499998"
       inkscape:export-xdpi="4.9499998"
       y="322.18362"
       x="188.76779"
       height="400"
       width="400"
       id="rect3336"
       style="fill:none;fill-rule:evenodd;stroke:none;stroke-width:1px;stroke-linecap:butt;stroke-linejoin:miter;stroke-opacity:1" />
    <path
       inkscape:connector-curvature="0"
       style="color:#000000;clip-rule:nonzero;display:inline;overflow:visible;visibility:visible;opacity:1;isolation:auto;mix-blend-mode:normal;color-interpolation:sRGB;color-interpolation-filters:linearRGB;solid-color:#000000;solid-opacity:1;fill:#99b000;fill-opacity:1;fill-rule:nonzero;stroke:none;stroke-width:50;stroke-linecap:round;stroke-linejoin:round;stroke-miterlimit:4;stroke-dasharray:none;stroke-dashoffset:0;stroke-opacity:1;color-rendering:auto;image-rendering:auto;shape-rendering:auto;text-rendering:auto;enable-background:accumulate"
       d="m 276.2678,472.77503 c -48.32492,0 -87.5,39.17508 -87.5,87.5 0.0538,43.45505 25.99061,80.2863 69,86.49414 l 0,76.00586 37,0 0,-75.98438 c 43.01745,-6.20901 68.95682,-43.05241 69,-86.51562 0,-48.32492 -39.17508,-87.5 -87.5,-87.5 z m 0,29 c 34.5178,0 58.5,23.9822 58.5,58.5 0,34.5178 -23.9822,58.5 -58.5,58.5 -34.5178,0 -58.5,-23.9822 -58.5,-58.5 0,-34.5178 23.9822,-58.5 58.5,-58.5 z"
       id="path4541" />
    <path
       inkscape:connector-curvature="0"
       id="path4230"
       d="m 539.04521,497.18363 -34.95898,36.95117 c 39.12112,1.20291 49.95336,16.62534 50,50 l 34.95898,-36.95117 c -0.42603,-26.21463 -21.81993,-49.25806 -50,-50 z m -47.45117,59.38086 c -3.25802,-0.0311 -6.75751,0.15748 -10.51563,0.57812 l -92.0332,90.04102 c 35.85935,0.80831 50.0617,17.45448 50,50 l 92.0332,-90.04102 c 0.81592,-29.48359 -7.99014,-50.27788 -39.48437,-50.57812 z m -127.54883,109.61914 0,56 56,0 c -0.5226,-38.9207 -17.63251,-55.8917 -56,-56 z"
       style="fill:#97ae00;fill-opacity:1;fill-rule:evenodd;stroke:none;stroke-width:1px;stroke-linecap:butt;stroke-linejoin:miter;stroke-opacity:1" />
  </g>
</svg>
